X:11751
T:New Mown Meadow
R:reel
S:
H:
N:
D:Milltown Session
Z:Adrian Scahill
M:4/4
L:1/8
K:G
d2Bd edBd|d2BG AGEG|d2Bd edBA|GBAG EGGB|\
d2Bd edBd|d2BG AGEG|c3A B3A|GBAG EGGB:||\
ADD2 D2EG|AcBG AGEG|ADD2 EDEG|G2AG EDEG|\
ADD2 D2EG|AcBG AGEG|c3A B3A|GBAG EGGB:||
